icon/gr/user-police.svg

<svg xmlns="http://www.w3.org/2000/svg" viewBox="0 0 24 24" height="1em" width="1em">
  <path fill="none" stroke="#000" stroke-width="2" d="M16,14 C18.3736719,15.1826446 20,17.6506255 20,21 L20,23 L4,23 L4,21 C4,17.6457258 5.6310898,15.1754259 8,14 M12,15 C15.2602409,15 17.9031883,12.3141492 17.9031883,9.00098429 C17.9031883,8.29933805 18.1210147,7.62582606 17.9031883,7 M6.09318017,7 C5.88352479,7.61511425 6.09318017,8.31344562 6.09318017,9.00098429 C6.09318017,12.3141492 8.73775349,15 12,15 L12,15 M6,8 L18,8 L21,4 C19.0884181,2.26537447 15.7904958,1 12,1 C8.16364606,1 4.83185613,2.29617718 3,4 L6,8 L6,8 L6,8 Z M12,5 C12.5522847,5 13,4.55228475 13,4 C13,4 11,4 11,4 C11,4.55228475 11.4477153,5 12,5 L12,5 L12,5 Z"/>
</svg>

<svg xmlns="http://www.w3.org/2000/svg" width="24" height="24"><path fill="none" stroke="#000" stroke-width="2" d="M16 14c2.374 1.183 4 3.65 4 7v2H4v-2c0-3.354 1.631-5.825 4-7m4 1c3.26 0 5.903-2.686 5.903-5.999 0-.702.218-1.375 0-2.001M6.093 7c-.21.615 0 1.313 0 2.001C6.093 12.314 8.738 15 12 15M6 8h12l3-4c-1.912-1.735-5.21-3-9-3-3.836 0-7.168 1.296-9 3l3 4Zm6-3a1 1 0 0 0 1-1h-2a1 1 0 0 0 1 1Z"/></svg>
